X: 23102
T: Laura's
R: reel
M: 4/4
K: Dmajor
e|:f3f- fedf|eB(3BBB BABd|e3e- eAde|af(3fff fede|
f3f- fedf|eB(3BBB BABd|e3e- eAde|1 affe d2e2:|2 affe d2dA||
|:B3B- BABd|e3e- eAde|affe d2ef-|fgfd edBA|
B3B- BABd|e3e- eAde|affe d2ef-|fgfd edBA:|

